X:514
T:Marcha Vaqueira (XA 41)
R:Marcha
C:Tradicional
S:Msica Tradicional Asturiana, (C) Tello & Tito. Asturies, 2001.
S:http://pagina.de/MusTradAst <telloytito@asturies.org>
A:Asturies
Z:Mtodu de Xuacu Amieva 41
M:2/4
L:1/8
Q:1/4=116
K:C
|G2 c>B|~A2 G>E|G2 A>G|B3 D/E/|F2 G2|B2 B>c|BA cB|G4|
|G2 c>B|~A2 G>E|G2 A>G|A4|Ac BA|~GE FG|A2 B2|c4|
|c2 B>A|B2 B2-|BA cB|G4-|G2 ~A>G|~A2 G2-|GG BA|G4-|
|G2 B>A|B2 B2-|BA cB|G4-|G2 ~AG|~AF GA|B2 G2|c4-|c z .E.E|
|: .E.E .F.F|.GG A~A|GF ~ED|E/F/E/D/ E2-|E4-|[1 E2 .E.E :|[2 E2 Ac|
|B~A ~GF|G/A/G/F/ G2-|G4-|G2 Ac|B~A GF|~GE AA|~GF ~ED|
[M:6/8]
|E2 z ABA|GAG FEF|~G2 E ABA|GAG FGF|
|E3 ABA|GAG FEF|~G2 E ABA|GAG GAB|c3-ccc|c3 c2 c|c z5|
